packages/bezier-icons/icons/translate.svg

<svg width="24" height="24" viewBox="0 0 24 24" fill="none" xmlns="http://www.w3.org/2000/svg">
<path fill-rule="evenodd" clip-rule="evenodd" d="M10.0002 19.0001H19.0002V10.0001H16.0002H10.9182C10.8918 9.98142 10.866 9.96389 10.84 9.9463C10.8117 9.92716 10.7834 9.90794 10.7542 9.88709C11.9172 9.00309 12.7042 8.22609 12.7672 8.16209C12.9942 7.93709 13.0622 7.59709 12.9402 7.30109C12.8182 7.00509 12.5302 6.81309 12.2102 6.81309H10.4352V5.00009H8.85518V6.81309H6.23218V8.39309H10.0992C9.01218 9.25009 7.49318 10.2821 6.00018 10.7421L6.46518 12.2521C7.48218 11.9381 8.48618 11.4131 9.38518 10.8401C9.57318 10.9841 9.78218 11.1371 10.0002 11.2891V16.0001V19.0001ZM16.0002 8.00009H20.0002C20.5522 8.00009 21.0002 8.44809 21.0002 9.00009V20.0001C21.0002 20.5521 20.5522 21.0001 20.0002 21.0001H9.00018C8.44818 21.0001 8.00018 20.5521 8.00018 20.0001V16.0001H4.00018C3.44818 16.0001 3.00018 15.5521 3.00018 15.0001V4.00009C3.00018 3.44809 3.44818 3.00009 4.00018 3.00009H15.0002C15.5522 3.00009 16.0002 3.44809 16.0002 4.00009V8.00009ZM14.4465 13.1624L13.6935 15.0894H15.2085L14.4465 13.1624ZM10.8395 17.9874L13.8555 11.0124H15.1265L18.1605 17.9874H16.3595L15.7725 16.5104H13.1695L12.6025 17.9874H10.8395Z" fill="#313234"/>
</svg>

<svg xmlns="http://www.w3.org/2000/svg" width="24" height="24" fill="none" viewBox="0 0 24 24"><path fill="#313234" fill-rule="evenodd" d="M10 19h9v-9h-8.082a5 5 0 0 0-.164-.113 21 21 0 0 0 2.013-1.725.789.789 0 0 0-.557-1.349h-1.775V5h-1.58v1.813H6.232v1.58H10.1c-1.087.857-2.606 1.89-4.099 2.35l.465 1.51c1.017-.315 2.021-.84 2.92-1.413.188.144.397.297.615.45V19m6-11h4a1 1 0 0 1 1 1v11a1 1 0 0 1-1 1H9a1 1 0 0 1-1-1v-4H4a1 1 0 0 1-1-1V4a1 1 0 0 1 1-1h11a1 1 0 0 1 1 1zm-1.553 5.162-.753 1.927h1.515zm-3.607 4.825 3.015-6.975h1.271l3.034 6.975h-1.8l-.587-1.477h-2.604l-.567 1.477z" clip-rule="evenodd"/></svg>
